src/cui/assets/icons/heart-filled.svg

<svg fill="none" height="24" viewBox="0 0 24 24" width="24" xmlns="http://www.w3.org/2000/svg"><path clip-rule="evenodd" d="m11.295 20.706c.187.189.442.294.707.294.266 0 .52-.105.708-.293l7.768-7.781c2.036-2.04 2.036-5.359-.001-7.399-.983-.984-2.296-1.527-3.694-1.527-1.4 0-2.712.543-3.696 1.528l-1.085 1.086-1.085-1.087c-.983-.984-2.296-1.527-3.695-1.527-1.22412 0-2.38164.41573-3.3111 1.17887-.13278.10902-.2609.22513-.3839.34813-2.036 2.04-2.036 5.359 0 7.399z" fill="#0d1c2e" fill-rule="evenodd"/></svg>

<svg width="24" height="24" viewBox="0 0 24 24" fill="none" xmlns="http://www.w3.org/2000/svg">
<path fill-rule="evenodd" clip-rule="evenodd" d="M11.295 20.706C11.482 20.895 11.737 21 12.002 21C12.268 21 12.522 20.895 12.71 20.707L20.478 12.926C22.514 10.886 22.514 7.567 20.477 5.527C19.494 4.543 18.181 4 16.783 4C15.383 4 14.071 4.543 13.087 5.528L12.002 6.614L10.917 5.527C9.934 4.543 8.621 4 7.222 4C5.99788 4 4.84036 4.41573 3.9109 5.17887C3.77812 5.28789 3.65 5.404 3.527 5.527C1.491 7.567 1.491 10.886 3.527 12.926L11.295 20.706Z" fill="#0D1C2E"/>
</svg>
